symbols/web/add_call/materialsymbolsrounded/add_call_wght200gradN25fill1_20px.svg

<svg xmlns="http://www.w3.org/2000/svg" height="20" width="20"><path d="M13.646 9.167q-.167 0-.292-.136-.125-.135-.125-.302v-2h-2.021q-.166 0-.302-.135-.135-.136-.135-.302 0-.146.135-.282.136-.135.302-.135h2.021V3.854q0-.146.136-.281.135-.135.281-.135.166 0 .302.135.135.135.135.281v2.021h2q.146 0 .282.135.135.136.135.282 0 .166-.135.302-.136.135-.282.135h-2v2q0 .167-.135.302-.136.136-.302.136Zm2.021 7.271q-2.146 0-4.323-1.084-2.177-1.083-3.927-2.833-1.75-1.75-2.844-3.906-1.094-2.157-1.094-4.323 0-.354.261-.594.26-.24.593-.24h2.063q.354 0 .594.198.239.198.302.552l.458 1.98q.062.291-.021.541-.083.25-.271.417L5.646 8.833q1.021 1.771 2.406 3.146 1.386 1.375 3.26 2.438l1.771-1.875q.229-.23.396-.282.167-.052.438.011l1.833.375q.354.062.562.312.209.25.209.604v2.021q0 .355-.25.605t-.604.25Z"/></svg>

<svg xmlns="http://www.w3.org/2000/svg" height="20" width="20"><path d="M13.646 9.167Q13.479 9.167 13.354 9.031Q13.229 8.896 13.229 8.729V6.729H11.208Q11.042 6.729 10.906 6.594Q10.771 6.458 10.771 6.292Q10.771 6.146 10.906 6.01Q11.042 5.875 11.208 5.875H13.229V3.854Q13.229 3.708 13.365 3.573Q13.5 3.438 13.646 3.438Q13.812 3.438 13.948 3.573Q14.083 3.708 14.083 3.854V5.875H16.083Q16.229 5.875 16.365 6.01Q16.5 6.146 16.5 6.292Q16.5 6.458 16.365 6.594Q16.229 6.729 16.083 6.729H14.083V8.729Q14.083 8.896 13.948 9.031Q13.812 9.167 13.646 9.167ZM15.667 16.438Q13.521 16.438 11.344 15.354Q9.167 14.271 7.417 12.521Q5.667 10.771 4.573 8.615Q3.479 6.458 3.479 4.292Q3.479 3.938 3.74 3.698Q4 3.458 4.333 3.458H6.396Q6.75 3.458 6.99 3.656Q7.229 3.854 7.292 4.208L7.75 6.188Q7.812 6.479 7.729 6.729Q7.646 6.979 7.458 7.146L5.646 8.833Q6.667 10.604 8.052 11.979Q9.438 13.354 11.312 14.417L13.083 12.542Q13.312 12.312 13.479 12.26Q13.646 12.208 13.917 12.271L15.75 12.646Q16.104 12.708 16.312 12.958Q16.521 13.208 16.521 13.562V15.583Q16.521 15.938 16.271 16.188Q16.021 16.438 15.667 16.438Z"/></svg>
